src/assets/localcoinswap.svg

<?xml version="1.0" encoding="UTF-8"?>
<svg width="45px" height="19px" viewBox="0 0 45 19" version="1.1" xmlns="http://www.w3.org/2000/svg" xmlns:xlink="http://www.w3.org/1999/xlink">
    <!-- Generator: Sketch 51.2 (57519) - http://www.bohemiancoding.com/sketch -->
    <title>logo mark</title>
    <desc>Created with Sketch.</desc>
    <defs>
        <path d="M25.0727324,3.75645405 C25.6098027,2.91157027 27.5265503,-0.561475676 23.3543643,0.120059459 C20.6481935,0.562143243 15.6757306,3.65873243 12.9364554,3.65375135 C10.2306793,3.64887297 5.33004934,0.57267027 2.65940038,0.120059459 C1.71456926,-0.0400540541 -1.56389753,0.103575676 0.910641366,3.66561351 C3.29208349,7.09362432 10.4363605,17.3777081 10.4363605,17.3777081 C10.4363605,17.3777081 12.9109488,20.9401568 15.4158786,17.401073 C15.4158786,17.401073 22.8265693,7.28983784 25.0727324,3.75645405" id="path-1"></path>
        <path d="M25.0875332,15.2435459 C25.6246528,16.0884297 27.5414004,19.5614757 23.3691651,18.8799405 C20.6629943,18.4378568 15.6905313,15.3412676 12.9513055,15.3462486 C10.2454801,15.351127 5.34485009,18.4273297 2.67420114,18.8799405 C1.72937002,19.0400541 -1.54909677,18.8964243 0.925491461,15.3343865 C3.30688425,11.9063757 10.4511613,1.62229189 10.4511613,1.62229189 C10.4511613,1.62229189 12.9257989,-1.94015676 15.4307287,1.59892703 C15.4307287,1.59892703 22.8414194,11.7101622 25.0875332,15.2435459" id="path-3"></path>
    </defs>
    <g id="Design" stroke="none" stroke-width="1" fill="none" fill-rule="evenodd">
        <g id="Platform---Home---V8" transform="translate(-250.000000, -25.000000)">
            <g id="nav_bar">
                <g id="logo" transform="translate(250.000000, 25.000000)">
                    <g id="logo-mark">
                        <g id="Group-3" transform="translate(19.000000, 0.000000)">
                            <path d="M25.0915784,3.7370253 C25.6291573,2.88928305 27.5477205,-0.5955131 23.3715826,0.0883278438 C20.6628485,0.531907311 15.6856755,3.63897306 12.9438056,3.63397512 C10.2354666,3.62908024 5.33019461,0.542469953 2.65701596,0.0883278438 C1.71128988,-0.0723273748 -1.57028235,0.0717882912 0.906600488,3.64587742 C3.29029836,7.08548607 10.4413426,17.4043636 10.4413426,17.4043636 C10.4413426,17.4043636 12.9182748,20.9788649 15.4255773,17.4278075 C15.4255773,17.4278075 22.8432876,7.28236342 25.0915784,3.7370253" id="Fill-1" fill="#EDE8D8"></path>
                            <g id="Group-4">
                                <mask id="mask-2" fill="white">
                                    <use xlink:href="#path-1"></use>
                                </mask>
                                <g id="Clip-3"></g>
                                <path d="M12.9925996,3.65611351 C12.9925996,3.65611351 22.086482,7.51804324 24.6884061,4.35844595 C25.7537647,3.0648027 26.0454383,3.78141081 26.7886831,2.45731622 C28.9374573,-1.37046486 26.6344099,1.26560541 26.6344099,1.26560541 L24.9264516,-1.29518378 L16.4475901,-0.427448649 L12.4420114,1.91109189 L12.9925996,3.65611351" id="Fill-2" fill="#C0BDAA" mask="url(#mask-2)"></path>
                            </g>
                        </g>
                        <path d="M25.091542,15.2629747 C25.6291699,16.1107169 27.5477319,19.5955131 23.3715473,18.9116722 C20.662815,18.4680927 15.6856453,15.3610269 12.9438267,15.3660249 C10.2354401,15.3709198 5.33017137,18.45753 2.65699451,18.9116722 C1.71126906,19.0723274 -1.57030098,18.9282117 0.906629584,15.3541226 C3.29027649,11.9145139 10.441316,1.59563645 10.441316,1.59563645 C10.441316,1.59563645 12.9182959,-1.97886488 15.4255968,1.57219253 C15.4255968,1.57219253 22.8433021,11.7176366 25.091542,15.2629747" id="Fill-5" fill="#C0BDAA"></path>
                        <g id="Group-8">
                            <mask id="mask-4" fill="white">
                                <use xlink:href="#path-3"></use>
                            </mask>
                            <g id="Clip-7"></g>
                            <path d="M13.0074004,15.3438865 C13.0074004,15.3438865 22.1012827,11.4819568 24.7032068,14.6415541 C25.7685655,15.9351973 26.0602391,15.2185892 26.8034839,16.5426838 C28.9521594,20.3704649 26.6492106,17.7343946 26.6492106,17.7343946 L24.9412524,20.2951838 L16.4623909,19.4274486 L12.4568121,17.0889081 L13.0074004,15.3438865" id="Fill-6" fill="#F6F2E8" mask="url(#mask-4)"></path>
                        </g>
                    </g>
                </g>
            </g>
        </g>
    </g>
</svg>

<?xml version="1.0" encoding="UTF-8" standalone="no"?>
<svg
   xmlns:dc="http://purl.org/dc/elements/1.1/"
   xmlns:cc="http://creativecommons.org/ns#"
   xmlns:rdf="http://www.w3.org/1999/02/22-rdf-syntax-ns#"
   xmlns:svg="http://www.w3.org/2000/svg"
   xmlns="http://www.w3.org/2000/svg"
   xmlns:xlink="http://www.w3.org/1999/xlink"
   xmlns:sodipodi="http://sodipodi.sourceforge.net/DTD/sodipodi-0.dtd"
   xmlns:inkscape="http://www.inkscape.org/namespaces/inkscape"
   width="70"
   height="25"
   viewBox="0 0 70 25"
   version="1.1"
   id="svg30"
   sodipodi:docname="localcoinswap.svg"
   inkscape:version="0.92.2 (5c3e80d, 2017-08-06)">
  <metadata
     id="metadata34">
    <rdf:RDF>
      <cc:Work
         rdf:about="">
        <dc:format>image/svg+xml</dc:format>
        <dc:type
           rdf:resource="http://purl.org/dc/dcmitype/StillImage" />
        <dc:title>logo mark</dc:title>
      </cc:Work>
    </rdf:RDF>
  </metadata>
  <sodipodi:namedview
     pagecolor="#ffffff"
     bordercolor="#666666"
     borderopacity="1"
     objecttolerance="10"
     gridtolerance="10"
     guidetolerance="10"
     inkscape:pageopacity="0"
     inkscape:pageshadow="2"
     inkscape:window-width="1366"
     inkscape:window-height="705"
     id="namedview32"
     showgrid="false"
     inkscape:zoom="6.6888889"
     inkscape:cx="22.5"
     inkscape:cy="9.5"
     inkscape:window-x="-8"
     inkscape:window-y="-8"
     inkscape:window-maximized="1"
     inkscape:current-layer="svg30" />
  <!-- Generator: Sketch 51.2 (57519) - http://www.bohemiancoding.com/sketch -->
  <title
     id="title2">logo mark</title>
  <desc
     id="desc4">Created with Sketch.</desc>
  <defs
     id="defs8">
    <path
       d="M 25.072732,3.756454 C 25.609803,2.9115703 27.52655,-0.56147568 23.354364,0.12005946 20.648194,0.56214324 15.675731,3.6587324 12.936455,3.6537513 10.230679,3.648873 5.3300493,0.57267027 2.6594004,0.12005946 1.7145693,-0.04005405 -1.5638975,0.10357568 0.91064137,3.6656135 3.2920835,7.0936243 10.43636,17.377708 10.43636,17.377708 c 0,0 2.474589,3.562449 4.979519,0.02337 0,0 7.41069,-10.1112352 9.656853,-13.644619"
       id="path-1"
       inkscape:connector-curvature="0" />
    <path
       d="m 25.087533,15.243546 c 0.53712,0.844884 2.453867,4.31793 -1.718368,3.636395 C 20.662994,18.437857 15.690531,15.341268 12.951306,15.346249 10.24548,15.351127 5.3448501,18.42733 2.6742011,18.879941 1.72937,19.040054 -1.5490968,18.896424 0.92549146,15.334387 3.3068842,11.906376 10.451161,1.6222919 10.451161,1.6222919 c 0,0 2.474638,-3.5624487 4.979568,-0.023365 0,0 7.41069,10.1112351 9.656804,13.6446191"
       id="path-3"
       inkscape:connector-curvature="0" />
  </defs>
  <g
     id="Design"
     style="fill:none;fill-rule:evenodd;stroke:none;stroke-width:0.86361474"
     transform="matrix(1.1579238,0,0,1.1579238,7.9594253,1.4997238)">
    <g
       id="Platform---Home---V8"
       transform="translate(-250,-25)"
       style="stroke-width:0.86361474">
      <g
         id="nav_bar"
         style="stroke-width:0.86361474">
        <g
           id="logo"
           transform="translate(250,25)"
           style="stroke-width:0.86361474">
          <g
             id="logo-mark"
             style="stroke-width:0.86361474">
            <g
               id="Group-3"
               transform="translate(19)"
               style="stroke-width:0.86361474">
              <path
                 d="M 25.091578,3.7370253 C 25.629157,2.889283 27.547721,-0.5955131 23.371583,0.08832784 20.662848,0.53190731 15.685676,3.6389731 12.943806,3.6339751 10.235467,3.6290802 5.3301946,0.54246995 2.657016,0.08832784 1.7112899,-0.07232737 -1.5702824,0.07178829 0.90660049,3.6458774 3.2902984,7.0854861 10.441343,17.404364 10.441343,17.404364 c 0,0 2.476932,3.574501 4.984234,0.02344 0,0 7.417711,-10.1454446 9.666001,-13.6907827"
                 id="Fill-1"
                 inkscape:connector-curvature="0"
                 style="fill:#ede8d8;stroke-width:0.86361474" />
              <g
                 id="Group-4"
                 style="stroke-width:0.86361474">
                <mask
                   id="mask-2"
                   fill="white">
                  <use
                     xlink:href="#path-1"
                     id="use11"
                     x="0"
                     y="0"
                     width="100%"
                     height="100%" />
                </mask>
                <g
                   id="Clip-3"
                   style="stroke-width:0.86361474" />
                <path
                   d="m 12.9926,3.6561135 c 0,0 9.093882,3.8619297 11.695806,0.7023325 C 25.753765,3.0648027 26.045438,3.7814108 26.788683,2.4573162 28.937457,-1.3704649 26.63441,1.2656054 26.63441,1.2656054 L 24.926452,-1.2951838 16.44759,-0.42744865 12.442011,1.9110919 12.9926,3.6561135"
                   id="Fill-2"
                   mask="url(#mask-2)"
                   inkscape:connector-curvature="0"
                   style="fill:#c0bdaa;stroke-width:0.86361474" />
              </g>
            </g>
            <path
               d="m 25.091542,15.262975 c 0.537628,0.847742 2.45619,4.332538 -1.719995,3.648697 C 20.662815,18.468093 15.685645,15.361027 12.943827,15.366025 10.23544,15.37092 5.3301714,18.45753 2.6569945,18.911672 1.7112691,19.072327 -1.570301,18.928212 0.90662958,15.354123 3.2902765,11.914514 10.441316,1.5956364 10.441316,1.5956364 c 0,0 2.47698,-3.5745013 4.984281,-0.023444 0,0 7.417705,10.1454446 9.665945,13.6907826"
               id="Fill-5"
               inkscape:connector-curvature="0"
               style="fill:#c0bdaa;stroke-width:0.86361474" />
            <g
               id="Group-8"
               style="stroke-width:0.86361474">
              <mask
                 id="mask-4"
                 fill="white">
                <use
                   xlink:href="#path-3"
                   id="use19"
                   x="0"
                   y="0"
                   width="100%"
                   height="100%" />
              </mask>
              <g
                 id="Clip-7"
                 style="stroke-width:0.86361474" />
              <path
                 d="m 13.0074,15.343886 c 0,0 9.093883,-3.861929 11.695807,-0.702332 1.065359,1.293643 1.357032,0.577035 2.100277,1.90113 2.148675,3.827781 -0.154273,1.191711 -0.154273,1.191711 l -1.707959,2.560789 -8.478861,-0.867735 -4.005579,-2.338541 0.550588,-1.745022"
                 id="Fill-6"
                 mask="url(#mask-4)"
                 inkscape:connector-curvature="0"
                 style="fill:#f6f2e8;stroke-width:0.86361474" />
            </g>
          </g>
        </g>
      </g>
    </g>
  </g>
</svg>
